X:1
T:Dzisiaj w Betlejem
T:Dzisiaj w Betlejem
%%score { 1 | 2 }
L:1/8
M:3/4
K:C
V:1 treble nm="Piano" snm="P-no"
V:2 bass 
V:1
 z2 z2 z2 | !3!E2 !3!E!2!D !3!E!4!F | !5!G!5!A !5!G2 !4!F2 | !3!E2 !2!D2 z2 :| %4
w: ||we- so- ła no-|wi- na|
w: ||po- ro- dzi- ła|sy- na|
 !5!G2 !5!G!4!F !3!E!2!D | z2 z2 z !3!E | !5!G2 !5!G!4!F !3!E!2!D | z2 z2 z !3!E | %8
w: Chry- stus się ro- dzi|dzi|a- nie- li gra- ją|ją|
w: ||||
 !5!G!5!A !5!G!4!F !3!E!4!F | !5!G!5!A !5!G!4!F !3!E!4!F | !5!G!5!G !5!A2 !5!G2 | %11
w: pa- ste- rze śpie- wa- ją|by- dlę- ta klę- ka- ją|cu- da cu- da|
w: |||
 !4!F2 !3!E2 !2!D2 | z2 z2 z2 |] %13
w: o- gła- sza||
w: ||
V:2
 !2!C2 !2!C!5!G, !2!C!1!D | C2 CG, CD | C4 z2 | C2 G,2 z2 :| G,6 | C2 CG, C z | G,6 | C2 CG, C z | %8
w: Dzi- siaj w~Be- tle- jem|dzi- siaj w~Be- tle- jem||||nas o- swo- bo||kró- le wi- ta|
w: że pan- na czy- sta|że pan- na czy- sta|||||||
 G,6 | C6 | C6 | D2 C2 B,2 | C6 |] %13
w: ||||ją|
w: |||||

